src/assets/images/icons/user-man.svg

<svg width="64" height="64" viewBox="0 0 64 64" fill="none" xmlns="http://www.w3.org/2000/svg">
<path d="M32 0C49.7 0 64 14.3 64 32C64 49.7 49.7 64 32 64C14.3 64 0 49.7 0 32C0 14.3 14.3 0 32 0Z" fill="#57BC90"/>
<path d="M13 64C13 54.7 21.5 47 32 47C42.4 47 51 54.7 51 64" fill="#77C9D4"/>
<path d="M32 56C35.3137 56 38 53.3137 38 50C38 46.6863 35.3137 44 32 44C28.6863 44 26 46.6863 26 50C26 53.3137 28.6863 56 32 56Z" fill="white"/>
<path d="M36.0999 45.3V49.9001C36.0999 52.2001 34.1999 54 31.9999 54C30.8999 54 29.7999 53.5 29.0999 52.8C28.3999 52 27.8999 51.0001 27.8999 49.9001V45.3H36.0999Z" fill="#F7BE8F"/>
<path d="M36.3 48.3C34.9 48.8 33.5 49 32 49C30.5 49 29.1 48.8 27.7 48.3L26 47.5C22.8 45.7 20.6 42.7 20.1 39.3C20 38.7 20 38.2 20 37.7C20 36.7 20 34.6 20 32.8C20 31.1 20 23 20 23H44C44 23 44 31.1 44 32.8C44 34.6 44 36.6 44 37.7C44 38.2 44 38.8 43.9 39.3C43.7 40.8 43.2 42.1 42.4 43.4C41.4 45.1 39.9 46.5 38 47.5C37.4 47.8 36.9 48 36.3 48.3Z" fill="#FAD3A1"/>
<path d="M26.5 32C27.3 32 28 32.7 28 33.5C28 34.3 27.3 35 26.5 35C25.7 35 25 34.3 25 33.5C25 32.7 25.7 32 26.5 32Z" fill="#262647"/>
<path d="M36 33.5C36 32.7 36.7 32 37.5 32C38.3 32 39 32.7 39 33.5C39 34.3 38.3 35 37.5 35C36.7 35 36 34.3 36 33.5Z" fill="#262647"/>
<path d="M33 39C33 39.6 32.6 40 32 40C31.4 40 31 39.6 31 39H33Z" fill="#F7BE8F"/>
<path d="M32.0001 44.5001C30.4001 44.5001 28.9001 43.6001 28.1001 42.3001C28.0001 42.0001 28.0001 41.7001 28.3001 41.6001C28.5001 41.5001 28.8001 41.5001 29.0001 41.8001C29.6001 42.9001 30.8001 43.6001 32.0001 43.6001C33.2001 43.6001 34.4001 42.9001 35.0001 41.8001C35.1001 41.6001 35.4001 41.5001 35.7001 41.6001C35.9001 41.7001 36.0001 42.0001 35.9001 42.3001C35.1001 43.6001 33.6001 44.5001 32.0001 44.5001Z" fill="#F4B28E"/>
<path d="M46 26V33H44V27.6L38.6 23.4C37.1 27.4 32.7 30.2 28.3 30.2C25.3 30.2 21.9 28.9 20 26.8V27.7V33H18V24.5C18 21.4 19 18.9 20.7 17C23.3 14 27.2 11.9 31 12C34.1 12.1 36.4 13.1 40 12C40.3 12.5 40.5 13.2 40.3 14.2C40.2 15 40.1 15.2 40 15.7C43.5 18.3 46 21.2 46 26Z" fill="#262647"/>
<path d="M20 37C18.3 37 17 35.7 17 34C17 33.2 17.3 32.4 17.9 31.9C18.4 31.4 19.2 31 20 31V37Z" fill="#F7BE8F"/>
<path d="M44 37C45.7 37 47 35.7 47 34C47 33.2 46.7 32.4 46.1 31.9C45.6 31.3 44.8 31 44 31V37Z" fill="#F7BE8F"/>
</svg>

<?xml version="1.0" encoding="utf-8"?>
<!-- Generator: Adobe Illustrator 18.0.0, SVG Export Plug-In . SVG Version: 6.00 Build 0)  -->
<!DOCTYPE svg PUBLIC "-//W3C//DTD SVG 1.1//EN" "http://www.w3.org/Graphics/SVG/1.1/DTD/svg11.dtd">
<svg version="1.1" id="Layer_1" xmlns="http://www.w3.org/2000/svg" xmlns:xlink="http://www.w3.org/1999/xlink" x="0px" y="0px"
	 viewBox="0 0 64 64" enable-background="new 0 0 64 64" xml:space="preserve">
<g>
	<g>
		<g>
			<path fill="#5093FF" d="M32,0c17.7,0,32,14.3,32,32S49.7,64,32,64S0,49.7,0,32S14.3,0,32,0z"/>
		</g>
	</g>
	<g>
		<defs>
			<path id="SVGID_1_" d="M32,0c17.7,0,32,14.3,32,32S49.7,64,32,64S0,49.7,0,32S14.3,0,32,0z"/>
		</defs>
		<clipPath id="SVGID_2_">
			<use xlink:href="#SVGID_1_"  overflow="visible"/>
		</clipPath>
		<g clip-path="url(#SVGID_2_)">
			<g>
				<path fill="#316CFF" d="M13,64c0-9.3,8.5-17,19-17h0c10.4,0,19,7.7,19,17"/>
			</g>
		</g>
		<g clip-path="url(#SVGID_2_)">
			<g>
				<circle fill="#FFFFFF" cx="32" cy="50" r="6"/>
			</g>
		</g>
		<g clip-path="url(#SVGID_2_)">
			<g>
				<path fill="#F7BE8F" d="M36.1,45.3v4.6c0,2.3-1.9,4.1-4.1,4.1c-1.1,0-2.2-0.5-2.9-1.2c-0.7-0.8-1.2-1.8-1.2-2.9v-4.6H36.1z"/>
			</g>
		</g>
		<g clip-path="url(#SVGID_2_)">
			<g>
				<path fill="#FAD3A1" d="M36.3,48.3C34.9,48.8,33.5,49,32,49s-2.9-0.2-4.3-0.7L26,47.5c-3.2-1.8-5.4-4.8-5.9-8.2
					C20,38.7,20,38.2,20,37.7c0-1,0-3.1,0-4.9c0-1.7,0-9.8,0-9.8h24c0,0,0,8.1,0,9.8c0,1.8,0,3.8,0,4.9c0,0.5,0,1.1-0.1,1.6
					c-0.2,1.5-0.7,2.8-1.5,4.1c-1,1.7-2.5,3.1-4.4,4.1C37.4,47.8,36.9,48,36.3,48.3z"/>
			</g>
		</g>
		<g clip-path="url(#SVGID_2_)">
			<g>
				<path fill="#262647" d="M26.5,32c0.8,0,1.5,0.7,1.5,1.5c0,0.8-0.7,1.5-1.5,1.5c-0.8,0-1.5-0.7-1.5-1.5C25,32.7,25.7,32,26.5,32z
					"/>
			</g>
		</g>
		<g clip-path="url(#SVGID_2_)">
			<g>
				<path fill="#262647" d="M36,33.5c0-0.8,0.7-1.5,1.5-1.5c0.8,0,1.5,0.7,1.5,1.5c0,0.8-0.7,1.5-1.5,1.5C36.7,35,36,34.3,36,33.5z"
					/>
			</g>
		</g>
		<g clip-path="url(#SVGID_2_)">
			<g>
				<path fill="#F7BE8F" d="M33,39c0,0.6-0.4,1-1,1s-1-0.4-1-1H33z"/>
			</g>
		</g>
		<g clip-path="url(#SVGID_2_)">
			<g>
				<path fill="#F4B28E" d="M32,44.5c-1.6,0-3.1-0.9-3.9-2.2C28,42,28,41.7,28.3,41.6c0.2-0.1,0.5-0.1,0.7,0.2
					c0.6,1.1,1.8,1.8,3,1.8s2.4-0.7,3-1.8c0.1-0.2,0.4-0.3,0.7-0.2c0.2,0.1,0.3,0.4,0.2,0.7C35.1,43.6,33.6,44.5,32,44.5z"/>
			</g>
		</g>
		<g clip-path="url(#SVGID_2_)">
			<g>
				<path fill="#262647" d="M46,26v7h-2v-5.4l-5.4-4.2c-1.5,4-5.9,6.8-10.3,6.8c-3,0-6.4-1.3-8.3-3.4v0.9V33h-2v-8.5
					c0-3.1,1-5.6,2.7-7.5c2.6-3,6.5-5.1,10.3-5c3.1,0.1,5.4,1.1,9,0c0.3,0.5,0.5,1.2,0.3,2.2c-0.1,0.8-0.2,1-0.3,1.5l0,0
					C43.5,18.3,46,21.2,46,26z"/>
			</g>
		</g>
		<g clip-path="url(#SVGID_2_)">
			<g>
				<path fill="#F7BE8F" d="M20,37c-1.7,0-3-1.3-3-3c0-0.8,0.3-1.6,0.9-2.1c0.5-0.5,1.3-0.9,2.1-0.9V37z"/>
			</g>
		</g>
		<g clip-path="url(#SVGID_2_)">
			<g>
				<path fill="#F7BE8F" d="M44,37c1.7,0,3-1.3,3-3c0-0.8-0.3-1.6-0.9-2.1C45.6,31.3,44.8,31,44,31V37z"/>
			</g>
		</g>
	</g>
</g>
</svg>
